X: 45
T: Missa De feria / Agnus Dei
N: Derived from Rue1009e-Missa_De_feria-Agnus.krn
C: Pierre de la Rue
%%abc-version 2.0
%%abcx-abcm2ps-target-version 5.9.1 (29 Sep 2008)
%%abc-creator hum2abc beta
%%abcx-conversion-date 2019/02/17 08:01:11
%%abc-edited-by Jesse Rodin
%%abc-edited-by Chris Gage 01-29-2013
%%abcx-initial-encoding-date 2013/07/17/
%%humdrum-veritas 863875929
%%humdrum-veritas-data 2939268367
%%linebreak <none>
%%barnumbers 0
L: 1/4
M: 4/2
Q: 1/2=120
V: 1 clef=treble
V: 2 clef=treble-8
V: 3 clef=treble-8
V: 4 clef=treble-8
V: 5 clef=bass
K: C
[V:1] E8 | 
[V:2] z8 | 
[V:3] B8- | 
[V:4] z8 | 
[V:5] E,8 | 
[V:1] G6FE | 
[V:2] z8 | 
[V:3] B8 | 
[V:4] z8 | 
[V:5] E,4G,4- | 
[V:1] D2E2F2E2- | 
[V:2] z8 | 
[V:3] d6cB | 
[V:4] z8 | 
[V:5] G,2F,E,D,2E,2 | 
[V:1] E2D2E4- | 
[V:2] z8 | 
[V:3] A2B2c4 | 
[V:4] z8 | 
[V:5] F,4E,4 | 
[V:1] E4z2E2 | 
[V:2] z8 | 
[V:3] B8 | 
[V:4] E8- | 
[V:5] z8 | 
[V:1] E2E2G4- | 
[V:2] z8 | 
[V:3] z4B4 | 
[V:4] E8 | 
[V:5] z8 | 
[V:1] G2FED3E | 
[V:2] z8 | 
[V:3] B2d4d2 | 
[V:4] G6FE | 
[V:5] z8 | 
[V:1] F2G2A4 | 
[V:2] z4D4 | 
[V:3] d4d4 | 
[V:4] D2E2F4 | 
[V:5] z8 | 
[V:1] G8 | 
[V:2] G4G2G2- | 
[V:3] e8 | 
[V:4] E8 | 
[V:5] C,8 | 
[V:1] z4A4 | 
[V:2] G2G2CDEF | 
[V:3] d2B2c4 | 
[V:4] z4E4 | 
[V:5] B,,2G,,2A,,4 | 
[V:1] B4B2G2- | 
[V:2] G2E2D4- | 
[V:3] B8 | 
[V:4] E2G4G2 | 
[V:5] G,,8 | 
[V:1] G2FED4 | 
[V:2] D8 | 
[V:3] z8 | 
[V:4] G4G4 | 
[V:5] B,,4B,,4 | 
[V:1] C3DE2F2- | 
[V:2] E2F2E2c2- | 
[V:3] z8 | 
[V:4] A8 | 
[V:5] A,,8 | 
[V:1] FEE4D2 | 
[V:2] c2c2A4 | 
[V:3] z8 | 
[V:4] G2E2F4 | 
[V:5] C,4D,4 | 
[V:1] E8 | 
[V:2] G4z2G2- | 
[V:3] B4B2c2- | 
[V:4] E8 | 
[V:5] z2G,3F,E,D, | 
[V:1] z8 | 
[V:2] G2FEF2E2 | 
[V:3] c2BAB2c2 | 
[V:4] z8 | 
[V:5] C,2E,2D,2C,2 | 
[V:1] z4E4 | 
[V:2] F3DE4 | 
[V:3] A2d4c2 | 
[V:4] z8 | 
[V:5] D,4A,,4 | 
[V:1] F2A3^GG2 | 
[V:2] D4z4 | 
[V:3] dcBAB4 | 
[V:4] z8 | 
[V:5] D,2F,2E,4 | 
[V:1] A8 | 
[V:2] c8 | 
[V:3] A8- | 
[V:4] E4E2F2- | 
[V:5] A,,8- | 
[V:1] z2A4A2- | 
[V:2] c4c4 | 
[V:3] A8 | 
[V:4] F2EDE2F2 | 
[V:5] A,,8 | 
[V:1] A2_B3GA2 | 
[V:2] d4d4 | 
[V:3] z8 | 
[V:4] D2G4F2 | 
[V:5] z8 | 
[V:1] _BAGFG4 | 
[V:2] d4c4 | 
[V:3] z4G4 | 
[V:4] GFEDE4 | 
[V:5] z8 | 
[V:1] F3GAGFE | 
[V:2] d8- | 
[V:3] A4A2_B2- | 
[V:4] D8- | 
[V:5] z8 | 
[V:1] D2G4^F2 | 
[V:2] d8 | 
[V:3] B2AGA4 | 
[V:4] D8 | 
[V:5] z4D,4 | 
[V:1] G8 | 
[V:2] z8 | 
[V:3] G4c3B | 
[V:4] z8 | 
[V:5] E,6D,2 | 
[V:1] A4c4 | 
[V:2] z8 | 
[V:3] AGG4^F2 | 
[V:4] z4C4 | 
[V:5] C,2B,,2A,,4 | 
[V:1] B8 | 
[V:2] d3cBAG2- | 
[V:3] G8 | 
[V:4] D4D2E2- | 
[V:5] G,,8- | 
[V:1] G8 | 
[V:2] G2c4B2 | 
[V:3] z8 | 
[V:4] E2DCD4 | 
[V:5] G,,8 | 
[V:1] z8 | 
[V:2] c6BA | 
[V:3] z4c4 | 
[V:4] C4F3E | 
[V:5] z2C,2A,,2B,,2 | 
[V:1] z8 | 
[V:2] G2C2G4- | 
[V:3] c4d4 | 
[V:4] DCC4B,2 | 
[V:5] C,2A,,2G,,4 | 
[V:1] z2G2G4 | 
[V:2] G4E4 | 
[V:3] e8 | 
[V:4] C8 | 
[V:5] z4C,4 | 
[V:1] F2A4B2 | 
[V:2] D2F4G2 | 
[V:3] f6ed | 
[V:4] z8 | 
[V:5] D,6C,B,, | 
[V:1] c2F2c3B | 
[V:2] A8 | 
[V:3] c2d2c2f2- | 
[V:4] z4F4 | 
[V:5] A,,2D,2A,,2D,2- | 
[V:1] A4G4 | 
[V:2] z8 | 
[V:3] fed4^c2 | 
[V:4] F4G4 | 
[V:5] D,2F,2E,4 | 
[V:1] F2A3GFE | 
[V:2] z4F4 | 
[V:3] d8- | 
[V:4] A8 | 
[V:5] D,8 | 
[V:1] D2G4FE | 
[V:2] G3A_Bcd2- | 
[V:3] d8- | 
[V:4] _B6AG | 
[V:5] z2G,,3A,,_B,,C, | 
[V:1] F2D3C_B,A, | 
[V:2] dc_B2A2G2 | 
[V:3] d8- | 
[V:4] F2G2F2_B2- | 
[V:5] D,2G,,2D,2G,2- | 
[V:1] G,2G,2A,4 | 
[V:2] _B3cd4 | 
[V:3] d8- | 
[V:4] BAG4^F2 | 
[V:5] G,2F,E,D,2D,2 | 
[V:1] B,8 ||  
[V:2] D8 ||  
[V:3] d8 ||  
[V:4] G8 ||  
[V:5] G,,8 ||  
[V:1]  [K:C] [K:clef=treble][M:4/2]z8 | 
[V:2]  [K:C] [K:clef=treble-8][M:4/2]A4ABcd | 
[V:3]  [K:C] [K:clef=treble-8][M:4/2]z8 | 
[V:4]  [K:C] [K:clef=treble-8][M:4/2]z8 | 
[V:5]  [K:C] [K:clef=bass][M:4/2]z8 | 
[V:1] z2C3DEF | 
[V:2] e8 | 
[V:3] z8 | 
[V:4] z8 | 
[V:5] z8 | 
[V:1] G3AB2c2- | 
[V:2] e8 | 
[V:3] z8 | 
[V:4] z8 | 
[V:5] z8 | 
[V:1] c2BAB4 | 
[V:2] d8 | 
[V:3] z8 | 
[V:4] z8 | 
[V:5] z8 | 
[V:1] E8 | 
[V:2] c4z2A2 | 
[V:3] z8 | 
[V:4] z8 | 
[V:5] z8 | 
[V:1] z4z2A2- | 
[V:2] ABcde2f2- | 
[V:3] z8 | 
[V:4] z8 | 
[V:5] z8 | 
[V:1] A2GFG4 | 
[V:2] f2ede4 | 
[V:3] z8 | 
[V:4] z8 | 
[V:5] z8 | 
[V:1] A2c4BA | 
[V:2] A8 | 
[V:3] z8 | 
[V:4] z8 | 
[V:5] z8 | 
[V:1] B2A2BAGF | 
[V:2] z2d4B2 | 
[V:3] z8 | 
[V:4] z8 | 
[V:5] z8 | 
[V:1] E4z2DE | 
[V:2] c4d2f2- | 
[V:3] z8 | 
[V:4] z8 | 
[V:5] z8 | 
[V:1] FGABc2B2- | 
[V:2] f2ede2d2 | 
[V:3] z8 | 
[V:4] z8 | 
[V:5] z8 | 
[V:1] B2G3^FF2 | 
[V:2] edcBA4 | 
[V:3] z8 | 
[V:4] z8 | 
[V:5] z8 | 
[V:1] G8- | 
[V:2] G4z2cB | 
[V:3] z8 | 
[V:4] z8 | 
[V:5] z8 | 
[V:1] G8 | 
[V:2] cde4dc | 
[V:3] z8 | 
[V:4] z8 | 
[V:5] z8 | 
[V:1] z2GFGAB2- | 
[V:2] B2c2G2d2- | 
[V:3] z8 | 
[V:4] z8 | 
[V:5] z8 | 
[V:1] B2AGA2B2 | 
[V:2] d2cBc2d2 | 
[V:3] z8 | 
[V:4] z8 | 
[V:5] z8 | 
[V:1] E2B4AG | 
[V:2] e4d4- | 
[V:3] z8 | 
[V:4] z8 | 
[V:5] z8 | 
[V:1] A2B2c4 | 
[V:2] d2cBABcB/c/ | 
[V:3] z8 | 
[V:4] z8 | 
[V:5] z8 | 
[V:1] B2A4^G2 | 
[V:2] dcBAB4 | 
[V:3] z8 | 
[V:4] z8 | 
[V:5] z8 | 
[V:1] A4z2E2 | 
[V:2] A8 | 
[V:3] z8 | 
[V:4] z8 | 
[V:5] z8 | 
[V:1] E2F4ED | 
[V:2] z4z2A2 | 
[V:3] z8 | 
[V:4] z8 | 
[V:5] z8 | 
[V:1] E2D4B2 | 
[V:2] A2B4AG | 
[V:3] z8 | 
[V:4] z8 | 
[V:5] z8 | 
[V:1] c2A2B2d2- | 
[V:2] A2F2G4 | 
[V:3] z8 | 
[V:4] z8 | 
[V:5] z8 | 
[V:1] dcBAG3A | 
[V:2] z2d2e2c2 | 
[V:3] z8 | 
[V:4] z8 | 
[V:5] z8 | 
[V:1] B2A4d2- | 
[V:2] d2f3edc | 
[V:3] z8 | 
[V:4] z8 | 
[V:5] z8 | 
[V:1] d2c4B2 | 
[V:2] B2c2d4 | 
[V:3] z8 | 
[V:4] z8 | 
[V:5] z8 | 
[V:1] c3BG2A2- | 
[V:2] c8 | 
[V:3] z8 | 
[V:4] z8 | 
[V:5] z8 | 
[V:1] AGE2F3E | 
[V:2] z4z2d2 | 
[V:3] z8 | 
[V:4] z8 | 
[V:5] z8 | 
[V:1] C4z4 | 
[V:2] e3dB2c2- | 
[V:3] z8 | 
[V:4] z8 | 
[V:5] z8 | 
[V:1] z2G2E2F2 | 
[V:2] cBG2A3G | 
[V:3] z8 | 
[V:4] z8 | 
[V:5] z8 | 
[V:1] G2A2B2c2 | 
[V:2] E8 | 
[V:3] z8 | 
[V:4] z8 | 
[V:5] z8 | 
[V:1] d3cB2A2 | 
[V:2] z2B2G2A2 | 
[V:3] z8 | 
[V:4] z8 | 
[V:5] z8 | 
[V:1] G2FEF2E2 | 
[V:2] B2c2d2e2 | 
[V:3] z8 | 
[V:4] z8 | 
[V:5] z8 | 
[V:1] z2A4G2 | 
[V:2] fedcB4 | 
[V:3] z8 | 
[V:4] z8 | 
[V:5] z8 | 
[V:1] F2EDC2c2- | 
[V:2] A4z2A2- | 
[V:3] z8 | 
[V:4] z8 | 
[V:5] z8 | 
[V:1] cBAGA2GF | 
[V:2] A2G2F2ED | 
[V:3] z8 | 
[V:4] z8 | 
[V:5] z8 | 
[V:1] E2A,2z2A,B, | 
[V:2] C2c3BAG | 
[V:3] z8 | 
[V:4] z8 | 
[V:5] z8 | 
[V:1] CDEFGEF2- | 
[V:2] A2GFE2D2 | 
[V:3] z8 | 
[V:4] z8 | 
[V:5] z8 | 
[V:1] F2E3DD2 | 
[V:2] E4F4 | 
[V:3] z8 | 
[V:4] z8 | 
[V:5] z8 | 
[V:1] E8 ||  
[V:2] E8 ||  
[V:3] z8 ||  
[V:4] z8 ||  
[V:5] z8 ||  
[V:1]  [K:C] [K:clef=treble][M:2/1]z8 | 
[V:2]  [K:C] [K:clef=treble-8][M:2/1]z8 | 
[V:3]  [K:C] [K:clef=treble-8][M:2/1]z8 | 
[V:4]  [K:C] [K:clef=treble-8][M:2/1]A6GF | 
[V:5]  [K:C] [K:clef=bass][M:2/1]A,,6B,,2 | 
[V:1] z8 | 
[V:2] z8 | 
[V:3] z8 | 
[V:4] E2F2GFED | 
[V:5] C,2D,2B,,4 | 
[V:1] z8 | 
[V:2] c6BA | 
[V:3] z8 | 
[V:4] C3DEFG2- | 
[V:5] A,,4C,3D, | 
[V:1] z8 | 
[V:2] G2A2BAGF | 
[V:3] z8 | 
[V:4] G2FEF4 | 
[V:5] E,2F,2D,4 | 
[V:1] z8 | 
[V:2] E3FGAB2- | 
[V:3] e6dc | 
[V:4] G8 | 
[V:5] C,4E,3F, | 
[V:1] z8 | 
[V:2] B2AGA4 | 
[V:3] B2c2dcBA | 
[V:4] z8 | 
[V:5] G,2A,2F,4 | 
[V:1] G6FE | 
[V:2] B8 | 
[V:3] G3ABcd2- | 
[V:4] z8 | 
[V:5] E,4G,3A, | 
[V:1] D2E2FEDC | 
[V:2] z8 | 
[V:3] d2cBc4 | 
[V:4] z8 | 
[V:5] B,2C2A,4 | 
[V:1] B,4B,3C | 
[V:2] z8 | 
[V:3] d8 | 
[V:4] z8 | 
[V:5] G,4G,4- | 
[V:1] D2E4D2 | 
[V:2] z8 | 
[V:3] z8 | 
[V:4] z8 | 
[V:5] G,2F,E,F,4 | 
[V:1] E8 | 
[V:2] z8 | 
[V:3] z8 | 
[V:4] z2E2E3F | 
[V:5] E,2G,3F,E,2- | 
[V:1] z8 | 
[V:2] z8 | 
[V:3] z8 | 
[V:4] G2A4^G2 | 
[V:5] E,2D,C,B,,4 | 
[V:1] z8 | 
[V:2] z2A2A3B | 
[V:3] z8 | 
[V:4] A4A2F2- | 
[V:5] A,,8- | 
[V:1] z8 | 
[V:2] c2d4^c2 | 
[V:3] z8 | 
[V:4] F2EDE4 | 
[V:5] A,,8 | 
[V:1] z2B2B2d2- | 
[V:2] d8 | 
[V:3] z2B2B3c | 
[V:4] D4z4 | 
[V:5] z4G,4- | 
[V:1] d2cBA4 | 
[V:2] z4A4 | 
[V:3] d2e4d2 | 
[V:4] z8 | 
[V:5] G,2E,2F,4 | 
[V:1] G2E2E3F | 
[V:2] B2G2c3d | 
[V:3] e4e2c2- | 
[V:4] z8 | 
[V:5] E,8- | 
[V:1] G2A4^G2 | 
[V:2] e4E4 | 
[V:3] c2BAB4 | 
[V:4] z8 | 
[V:5] E,8 | 
[V:1] A8 | 
[V:2] z8 | 
[V:3] A4z4 | 
[V:4] z2D2D2F2- | 
[V:5] z2F,2F,2D,2- | 
[V:1] z8 | 
[V:2] z8 | 
[V:3] z8 | 
[V:4] F2EDF2G2 | 
[V:5] D,2C,B,,D,2C,B,, | 
[V:1] z8 | 
[V:2] z2F2F2A2- | 
[V:3] z8 | 
[V:4] A4z4 | 
[V:5] A,,2A,2A,2F,2- | 
[V:1] z8 | 
[V:2] A2GFA2B2 | 
[V:3] z8 | 
[V:4] z8 | 
[V:5] F,2E,D,F,2E,2 | 
[V:1] z4A4- | 
[V:2] c4c2A2- | 
[V:3] z2A2A2c2- | 
[V:4] z8 | 
[V:5] C,4z4 | 
[V:1] A4A4 | 
[V:2] A2GFA2GF | 
[V:3] c2BAc2d2 | 
[V:4] z8 | 
[V:5] z8 | 
[V:1] G4G2E2- | 
[V:2] E4z4 | 
[V:3] e4z4 | 
[V:4] z2E2E2G2- | 
[V:5] z2C,2C,2C,2 | 
[V:1] E2E2A4 | 
[V:2] z8 | 
[V:3] z8 | 
[V:4] GFE4D2 | 
[V:5] E,3G,F,4 | 
[V:1] G3FE2D2 | 
[V:2] z2G2G2B2- | 
[V:3] z8 | 
[V:4] E4z4 | 
[V:5] E,4C,2D,2- | 
[V:1] F2G2A4 | 
[V:2] BAG4^F2 | 
[V:3] z8 | 
[V:4] z8 | 
[V:5] D,C,B,,2A,,4 | 
[V:1] z2D2E2G2- | 
[V:2] G8 | 
[V:3] z2B2B2d2- | 
[V:4] z2G2G2D2 | 
[V:5] G,,8 | 
[V:1] GFE4D2 | 
[V:2] z8 | 
[V:3] dcB4A2 | 
[V:4] G3AF4 | 
[V:5] z8 | 
[V:1] E2G3AB2- | 
[V:2] z2B2c2B2 | 
[V:3] B4z4 | 
[V:4] E8- | 
[V:5] z8 | 
[V:1] B2A3^GG2 | 
[V:2] c4B4 | 
[V:3] z8 | 
[V:4] E8 | 
[V:5] z8 | 
[V:1] A8 | 
[V:2] A8- | 
[V:3] z2d2d2A2 | 
[V:4] z8 | 
[V:5] z2D,2D,2D,2- | 
[V:1] z2A2A2A2 | 
[V:2] A8 | 
[V:3] d3ec4 | 
[V:4] z8 | 
[V:5] D,E,F,G,A,4 | 
[V:1] G6FE | 
[V:2] z8 | 
[V:3] B8- | 
[V:4] z4G4- | 
[V:5] E,8 | 
[V:1] D2E2F2G2 | 
[V:2] z8 | 
[V:3] B8 | 
[V:4] G2FED2E2 | 
[V:5] z8 | 
[V:1] A4E4 | 
[V:2] z4c4- | 
[V:3] z8 | 
[V:4] F2G2A4 | 
[V:5] z8 | 
[V:1] z4G4- | 
[V:2] c2BAG2A2 | 
[V:3] z8 | 
[V:4] E8 | 
[V:5] C,6B,,A,, | 
[V:1] G2FED2E2 | 
[V:2] B2c2d4 | 
[V:3] z4d4- | 
[V:4] z8 | 
[V:5] G,,2A,,2B,,2C,2 | 
[V:1] F2G2A4- | 
[V:2] A4z4 | 
[V:3] d2cBA2B2 | 
[V:4] z4A4 | 
[V:5] D,6C,B,, | 
[V:1] A2GFE2F2 | 
[V:2] z8 | 
[V:3] c2d2e4 | 
[V:4] A4G4- | 
[V:5] A,,2B,,2C,2D,2 | 
[V:1] G2A2B4 | 
[V:2] z4G4 | 
[V:3] B8 | 
[V:4] G2FED2D2 | 
[V:5] E,2D,C,B,,4 | 
[V:1] c4z2c2 | 
[V:2] A2c3BA2- | 
[V:3] z8 | 
[V:4] E8 | 
[V:5] A,,8- | 
[V:1] c2A4GF | 
[V:2] A2GFE4 | 
[V:3] z4e4 | 
[V:4] z2E2E3D | 
[V:5] A,,8 | 
[V:1] E2A3GFE | 
[V:2] A8 | 
[V:3] e4d4- | 
[V:4] C2C2D2A2- | 
[V:5] z2A,,2D,4- | 
[V:1] F2E3DD2 | 
[V:2] A8 | 
[V:3] d2cBA2A2 | 
[V:4] AGFEF4 | 
[V:5] D,2A,,2D,4 | 
[V:1] E8- | 
[V:2] z2G2G3F | 
[V:3] B8 | 
[V:4] E8- | 
[V:5] G,4z2G,2 | 
[V:1] E8 | 
[V:2] E2E2G4 | 
[V:3] z2B2B3A | 
[V:4] E8- | 
[V:5] G,2G,3F,E,2- | 
[V:1] E8- | 
[V:2] GFEDC2c2- | 
[V:3] G2G2A2e2- | 
[V:4] E8- | 
[V:5] E,D,C,3B,,A,,G,, | 
[V:1] E8- | 
[V:2] cBAGA4 | 
[V:3] edcBc4 | 
[V:4] E8- | 
[V:5] A,,8 | 
[V:1] E8 |]  
[V:2] G8 |]  
[V:3] B8 |]  
[V:4] E8 |]  
[V:5] E,,8 |]  



